src/lib/packages/icons/src/assets/line/building.svg

<svg width="24" height="24" viewBox="0 0 24 24" fill="none" xmlns="http://www.w3.org/2000/svg">
<path d="M21 20.25H20.25V6C20.25 3.582 18.918 2.25 16.5 2.25H7.5C5.082 2.25 3.75 3.582 3.75 6V20.25H3C2.586 20.25 2.25 20.586 2.25 21C2.25 21.414 2.586 21.75 3 21.75H21C21.414 21.75 21.75 21.414 21.75 21C21.75 20.586 21.414 20.25 21 20.25ZM13.5 20.25H10.5V17.5C10.5 16.911 10.661 16.75 11.25 16.75H12.75C13.339 16.75 13.5 16.911 13.5 17.5V20.25ZM15 20.25V17.5C15 16.091 14.159 15.25 12.75 15.25H11.25C9.841 15.25 9 16.091 9 17.5V20.25H5.25V6C5.25 4.423 5.923 3.75 7.5 3.75H16.5C18.077 3.75 18.75 4.423 18.75 6V20.25H15ZM15.75 13C15.75 13.414 15.414 13.75 15 13.75H14C13.586 13.75 13.25 13.414 13.25 13C13.25 12.586 13.586 12.25 14 12.25H15C15.414 12.25 15.75 12.586 15.75 13ZM10.75 13C10.75 13.414 10.414 13.75 10 13.75H9C8.586 13.75 8.25 13.414 8.25 13C8.25 12.586 8.586 12.25 9 12.25H10C10.414 12.25 10.75 12.586 10.75 13ZM15.75 10C15.75 10.414 15.414 10.75 15 10.75H14C13.586 10.75 13.25 10.414 13.25 10C13.25 9.586 13.586 9.25 14 9.25H15C15.414 9.25 15.75 9.586 15.75 10ZM10.75 10C10.75 10.414 10.414 10.75 10 10.75H9C8.586 10.75 8.25 10.414 8.25 10C8.25 9.586 8.586 9.25 9 9.25H10C10.414 9.25 10.75 9.586 10.75 10ZM15.75 7C15.75 7.414 15.414 7.75 15 7.75H14C13.586 7.75 13.25 7.414 13.25 7C13.25 6.586 13.586 6.25 14 6.25H15C15.414 6.25 15.75 6.586 15.75 7ZM10.75 7C10.75 7.414 10.414 7.75 10 7.75H9C8.586 7.75 8.25 7.414 8.25 7C8.25 6.586 8.586 6.25 9 6.25H10C10.414 6.25 10.75 6.586 10.75 7Z" fill="currentColor"/>
</svg>

<svg xmlns="http://www.w3.org/2000/svg" width="24" height="24" fill="none"><path fill="currentColor" d="M21 20.25h-.75V6c0-2.418-1.332-3.75-3.75-3.75h-9C5.082 2.25 3.75 3.582 3.75 6v14.25H3a.75.75 0 0 0 0 1.5h18a.75.75 0 0 0 0-1.5Zm-7.5 0h-3V17.5c0-.589.161-.75.75-.75h1.5c.589 0 .75.161.75.75v2.75Zm1.5 0V17.5c0-1.409-.841-2.25-2.25-2.25h-1.5c-1.409 0-2.25.841-2.25 2.25v2.75H5.25V6c0-1.577.673-2.25 2.25-2.25h9c1.577 0 2.25.673 2.25 2.25v14.25H15Zm.75-7.25a.75.75 0 0 1-.75.75h-1a.75.75 0 0 1 0-1.5h1a.75.75 0 0 1 .75.75Zm-5 0a.75.75 0 0 1-.75.75H9a.75.75 0 0 1 0-1.5h1a.75.75 0 0 1 .75.75Zm5-3a.75.75 0 0 1-.75.75h-1a.75.75 0 0 1 0-1.5h1a.75.75 0 0 1 .75.75Zm-5 0a.75.75 0 0 1-.75.75H9a.75.75 0 0 1 0-1.5h1a.75.75 0 0 1 .75.75Zm5-3a.75.75 0 0 1-.75.75h-1a.75.75 0 0 1 0-1.5h1a.75.75 0 0 1 .75.75Zm-5 0a.75.75 0 0 1-.75.75H9a.75.75 0 0 1 0-1.5h1a.75.75 0 0 1 .75.75Z"/></svg>
